public/media/icons-technologies/SOCKET-IO.svg

<svg width="140" height="140" viewBox="0 0 140 140" fill="none" xmlns="http://www.w3.org/2000/svg">
<path d="M55.2095 13.4603C70.3347 9.58139 87.0512 11.8417 100.39 20.0744C117.19 30.1211 128.158 49.1256 128.437 68.6884C129.051 88.4462 118.753 108.037 102.205 118.781C83.7859 131.172 58.307 131.647 39.4975 119.87C20.3256 108.428 9.13469 85.3487 12.0095 63.1904C14.3252 39.7764 32.4095 19.1251 55.2095 13.4603Z" fill="#010101"/>
<path d="M52.893 23.0327C81.4698 11.5905 116.521 32.7161 119.479 63.3583C124.084 90.9302 101.2 118.949 73.2648 119.758C46.6975 122.41 21.0231 99.888 20.2698 73.2095C18.2884 51.6095 32.5211 30.1769 52.893 23.0327Z" fill="white"/>
<path d="M55.7674 67.0422C68.5769 56.5769 81.1071 45.7487 94.1955 35.5905C87.3302 46.1397 80.2699 56.5487 73.4046 67.0975C67.5161 67.1256 61.6282 67.1261 55.7674 67.0422ZM66.5955 72.8744C72.5116 72.8744 78.4 72.8744 84.2885 72.9583C71.3955 83.3673 58.9211 94.2789 45.8046 104.41C52.6699 93.8603 59.7302 83.4236 66.5955 72.8744Z" fill="#010101"/>
</svg>

<svg xmlns="http://www.w3.org/2000/svg" fill="none" viewBox="0 0 140 140">
  <path fill="#010101" d="M55.2 13.46c15.13-3.88 31.85-1.62 45.19 6.61 16.8 10.05 27.77 29.06 28.05 48.62.61 19.76-9.69 39.35-26.23 50.1-18.42 12.38-43.9 12.86-62.71 1.08C20.33 108.43 9.13 85.35 12 63.19c2.33-23.41 20.41-44.06 43.21-49.73Z"/>
  <path fill="#fff" d="M52.9 23.03c28.57-11.44 63.62 9.69 66.58 40.33 4.6 27.57-18.28 55.59-46.22 56.4C46.7 122.4 21.02 99.89 20.27 73.2c-1.98-21.6 12.25-43.03 32.62-50.18Z"/>
  <path fill="#010101" d="M55.77 67.04C68.57 56.58 81.1 45.74 94.2 35.6c-6.87 10.55-13.93 20.96-20.8 31.5-5.88.04-11.77.04-17.63-.05Zm10.83 5.83c5.91 0 11.8 0 17.69.09-12.9 10.4-25.37 21.32-38.49 31.45 6.87-10.55 13.93-20.99 20.8-31.54Z"/>
</svg>
